icon/gr/creative-commons.svg

<svg xmlns="http://www.w3.org/2000/svg" viewBox="0 0 24 24" height="1em" width="1em">
  <path fill="#333" fill-rule="evenodd" d="M11.9836946,0 C8.691525,0 5.7944764,1.21835303 3.55571004,3.48973014 C1.25096379,5.82708715 0,8.85609556 0,12.0163054 C0,15.2098843 1.21797384,18.1729128 3.52272009,20.4772799 C5.82746635,22.7820262 8.82310561,24.03299 11.9836946,24.03299 C15.1439044,24.03299 18.2059028,22.7820262 20.5762498,20.4446692 C22.8150161,18.2388928 24,15.3088542 24,12.0163054 C24,8.7571257 22.8150161,5.7944764 20.5432598,3.52272009 C18.2388928,1.21797384 15.2758642,0 11.9836946,0 L11.9836946,0 Z M12.0163054,2.17278645 C14.7161727,2.17278645 17.1195096,3.19319977 18.9957657,5.07021425 C20.839411,6.91348038 21.8268344,9.34980724 21.8268344,12.0163054 C21.8268344,14.7157935 20.8720217,17.0865196 19.0287556,18.897175 C17.0861404,20.806421 14.5842129,21.8272135 12.0163054,21.8272135 C9.41578715,21.8272135 6.97946028,20.8068002 5.102825,18.9297858 C3.22618972,17.0531505 2.17278645,14.5842129 2.17278645,12.0163054 C2.17278645,9.41578715 3.22618972,6.94684952 5.102825,5.0368451 C6.94647033,3.16058902 9.31681729,2.17278645 12.0163054,2.17278645 L12.0163054,2.17278645 Z M11.8615939,10.0194653 C11.1828351,8.78177337 10.0247741,8.28919927 8.68052834,8.28919927 C6.72388296,8.28919927 5.16652974,9.67326044 5.16652974,12.0159262 C5.16652974,14.3984074 6.63060102,15.7430323 8.74688744,15.7430323 C10.1047842,15.7430323 11.2628452,14.9975352 11.9014093,13.866397 L10.4107944,13.1076281 C10.0778613,13.9058333 9.57201542,14.1458636 8.93345131,14.1458636 C7.82847753,14.1458636 7.32263161,13.2274537 7.32263161,12.0159262 C7.32263161,10.805157 7.74884662,9.88636795 8.93345131,9.88636795 C9.25273336,9.88636795 9.89167667,10.0592808 10.2644252,10.8582443 L11.8615939,10.0194653 L11.8615939,10.0194653 Z M18.7936548,10.0194653 C18.114896,8.78177337 16.956835,8.28919927 15.6125893,8.28919927 C13.6559439,8.28919927 12.0985907,9.67326044 12.0985907,12.0159262 C12.0985907,14.3984074 13.5626619,15.7430323 15.6789484,15.7430323 C17.0368451,15.7430323 18.1949061,14.9975352 18.8334703,13.866397 L17.3428553,13.1076281 C17.0099223,13.9058333 16.5040763,14.1458636 15.8655122,14.1458636 C14.7605385,14.1458636 14.2546925,13.2274537 14.2546925,12.0159262 C14.2546925,10.805157 14.6809075,9.88636795 15.8655122,9.88636795 C16.1847943,9.88636795 16.8237376,10.0592808 17.1964861,10.8582443 L18.7936548,10.0194653 L18.7936548,10.0194653 Z"/>
</svg>

<svg xmlns="http://www.w3.org/2000/svg" width="24" height="24"><path fill="#333" fill-rule="evenodd" d="M11.984 0c-3.292 0-6.19 1.218-8.428 3.49C1.25 5.827 0 8.856 0 12.016c0 3.194 1.218 6.157 3.523 8.461 2.304 2.305 5.3 3.556 8.46 3.556 3.16 0 6.223-1.251 8.593-3.588C22.815 18.239 24 15.309 24 12.016c0-3.259-1.185-6.222-3.457-8.493C18.24 1.218 15.276 0 11.983 0Zm.032 2.173c2.7 0 5.104 1.02 6.98 2.897 1.843 1.843 2.83 4.28 2.83 6.946 0 2.7-.954 5.07-2.797 6.881-1.943 1.91-4.445 2.93-7.013 2.93-2.6 0-5.037-1.02-6.913-2.897-1.877-1.877-2.93-4.346-2.93-6.914 0-2.6 1.053-5.07 2.93-6.98 1.843-1.875 4.214-2.863 6.913-2.863Zm-.154 7.846c-.68-1.237-1.837-1.73-3.181-1.73-1.957 0-3.514 1.384-3.514 3.727 0 2.382 1.464 3.727 3.58 3.727 1.358 0 2.516-.745 3.154-1.877l-1.49-.758c-.333.798-.839 1.038-1.478 1.038-1.105 0-1.61-.919-1.61-2.13 0-1.21.426-2.13 1.61-2.13.32 0 .959.173 1.331.972l1.598-.839Zm6.932 0c-.68-1.237-1.837-1.73-3.181-1.73-1.957 0-3.514 1.384-3.514 3.727 0 2.382 1.464 3.727 3.58 3.727 1.358 0 2.516-.745 3.154-1.877l-1.49-.758c-.333.798-.839 1.038-1.477 1.038-1.105 0-1.611-.919-1.611-2.13 0-1.21.426-2.13 1.61-2.13.32 0 .959.173 1.331.972l1.598-.839Z"/></svg>
